X:1
T:Ensemble With Four Hands
T:Jay Chou
T:Ensemble With Four Hands
T:湘倫小雨四手聯彈
C:Jay Chou
%%score { 1 | 2 } { 3 | 4 }
L:1/8
Q:1/4=120
M:4/4
K:G
V:1 treble nm="1st piano"
V:2 bass 
V:3 treble nm="2nd piano"
V:4 bass 
V:1
 z8 | z6 z b/^a/ | b/c'/b/=a/ g/a/g/f/ e/g/b/e'/ g'/f'/e'/g'/ | f'4 z3 a/^g/ | %4
 a/b/a/=g/ f/g/a/f/ ^d/f/a/^d'/ f'/e'/d'/f'/ | e'6 z b/^a/ | %6
 b/c'/b/=a/ g/a/g/f/ e/^e/f/g/ ^g/a/^a/b/ | c'4 z3 b/^a/ | %8
 b/c'/b/^a/ c'/b/g/e/ b/c'/b/a/ c'/b/f/^d/ | e4 z b/^a/ b/a/b/a/ | %10
"^rit." b/^a/b/a/ b/a/b/a/ b/a/b/a/ b/a/b/a/ | %11
"^A tempo" b/c'/b/=a/ g/a/g/f/ e/g/b/e'/ g'/f'/e'/g'/ | %12
 f' z/ [faf']/ [faf']/ z [^df^d']/ [dfd']/ z [Bdb]/ [Bdb]a/^g/ | %13
 a/b/a/=g/ f/g/a/f/ ^d/f/a/^d'/ f'/e'/d'/f'/ | %14
 e' z/ [gbg']/ [gbg']/ z [ege']/ [ege']/ z [Beb]/ [Beb]b/^a/ | %15
 b/c'/b/=a/ g/a/g/f/ e/^e/f/g/ ^g/a/^a/b/ | %16
 c' z/ [=e=a=e']/ [eae']/ z [cec']/ [cec']/ z [=Aea]/ [Aea]b/^a/ | %17
 b/c'/b/^a/ c'/b/g/e/ b/c'/b/a/ c'/b/f/^d'/ | e'2 [GBg][Beb] [egbf']2 z2 |] %19
V:2
 z [E,G,B,] z [E,G,B,] z [E,G,B,] z [E,G,B,] | z [E,G,B,] z [E,G,B,] z [E,G,B,] z [E,G,B,] | %2
 z [E,G,B,] z [E,G,B,] z [E,G,B,] z [E,G,B,] | z [^D,F,B,] z [D,F,B,] z [D,F,B,] z [D,F,B,] | %4
 z [^D,F,B,] z [D,F,B,] z [D,F,B,] z [D,F,B,] | z [E,G,B,] z [E,G,B,] z [E,G,B,] z [E,G,B,] | %6
 z [E,G,B,] z [E,G,B,] z [E,G,B,] z [E,^G,B,] | z [E,A,C] z [E,A,C] z [E,A,C] z [E,A,C] | %8
 z [E,G,B,] z [E,G,B,] z [^D,F,B,] z [D,F,B,] | z [E,G,B,] z [E,G,B,] [E,G,B,]4 | z8 | %11
 z [E,G,B,] z [E,G,B,] z [E,G,B,] z [E,G,B,] | z [^D,F,B,] z [D,F,B,] z [D,F,B,] z [D,F,B,] | %13
 z [^D,F,B,] z [D,F,B,] z [D,F,B,] z [D,F,B,] | z [E,G,B,] z [E,G,B,] z [E,G,B,] z [E,G,B,] | %15
 z [E,G,B,] z [E,G,B,] z [E,G,B,] z [E,^G,B,] | z [E,A,C] z [E,A,C] z [E,A,C] z [E,A,C] | %17
 z [E,G,B,] z [E,G,B,] z [^D,F,B,] z [D,F,B,] | z [E,G,B,] z [E,G,B,] [E,G,B,]2 z2 |] %19
V:3
 z8 | z6 z G/F/ | G/A/G/F/ E/F/E/^D/ E/G/B/e/ g/f/e/g/ | f4 z3 F/^E/ | %4
 F/G/F/=E/ ^D/E/F/D/ B,/^A,/B,/D/ F/A,/=A,/F/ | G6 z G/F/ | G/A/G/F/ E/F/G/B/ z e/^d/ =d/^c/=c/B/ | %7
 A4 z3 G/F/ | G/A/G/F/ A/G/E/B,/ G/A/G/F/ A/G/^D/B,/ | E4 z G/F/ G/F/G/F/ | %10
 G/F/G/F/ G/F/G/F/ G/F/G/F/ G/F/G/F/ |"^A tempo" G/A/G/F/ E/F/E/^D/ E/G/B/e/ g/f/e/g/ | %12
 f4 z3 F/^E/ | F/G/F/=E/ ^D/E/F/D/ B,/^A,/B,/D/ F/A,/=A,/F/ | G6 z G/F/ | %15
 G/A/G/F/ E/F/G/B/ z e/^d/ =d/^c/=c/B/ | A4 z3 G/F/ | G/A/G/F/ A/G/E/B,/ G/A/G/F/ A/G/^D/B,/ | %18
 E2 [G,B,G][B,EB] [EGe]2 z2 |] %19
V:4
 [E,,,E,,]2 B,,,2 [E,,,E,,]2 B,,,2 | [E,,,E,,]2 B,,,2 [E,,,E,,]B,,,^C,,^D,, | %2
 [E,,,E,,]2 B,,,2 [E,,,E,,]2 B,,,2 | B,,,2 F,,2 [B,,,B,,]2 F,,2 | [B,,,B,,]2 F,,2 [B,,,B,,]2 F,,2 | %5
 [E,,,E,,]2 B,,,2 [E,,,E,,]2 B,,,2 | [E,,,E,,]2 B,,,2 [E,,,E,,]2 F,,,^G,,, | %7
 [A,,,A,,]2 E,,2 [A,,,A,,]2 E,,2 | B,,,2 G,,E,, B,,,2 F,,^D,, | E,,2 B,,,G,,, [E,,,E,,]2 z2 | z8 | %11
 [E,,,E,,]2 B,,,2 [E,,,E,,]2 B,,,2 | B,,,2 F,,2 [B,,,B,,]2 F,,2 | [B,,,B,,]2 F,,2 [B,,,B,,]2 F,,2 | %14
 [E,,,E,,]2 B,,,2 [E,,,E,,]2 B,,,2 | [E,,,E,,]2 B,,,2 [E,,,E,,]2 F,,,^G,,, | %16
 [A,,,A,,]2 E,,2 [A,,,A,,]2 E,,2 | B,,,2 G,,E,, B,,,2 F,,^D,, | E,,2 B,,,G,,, [E,,,E,,]2 z2 |] %19

